X:244
T:Reel 244
M:4/4
K:Amin
L:1/8
GF|EA, (3CB,A, E,A, (3A,B,A, |EA, (3CB,A, G,A,B,D|EA,B,A, G,A,B,CDB,||CA,B,G, A,2:||2CB,CD EAAB|cBcB cBAc|BdBG dBGB|cBcd ecAB|cBAG EAAB|cBcd ecAc|BABc BGGB|c2cA B2BG|ABAG EDED|
